outputs/icons/communication/chat_round.svg

<svg xmlns="http://www.w3.org/2000/svg" width="1200" height="1200" fill="none"><path fill="#000" d="M737.5 200c6.905 0 12.5 5.596 12.5 12.5v325c0 6.905-5.595 12.5-12.5 12.5H263.678a12.5 12.5 0 0 0-8.839 3.66L229 579.5l-7.661 7.66c-7.875 7.875-21.339 2.3-21.339-8.84V212.5c0-6.904 5.596-12.5 12.5-12.5zM800 100H150c-27.5 0-50 22.5-50 50v669.82c0 11.14 13.464 16.715 21.339 8.84L300 650h500c27.5 0 50-22.5 50-50V150c0-27.5-22.5-50-50-50m250 200H950v450H300v100c0 27.5 22.5 50 50 50h550l178.66 178.66c7.875 7.875 21.34 2.3 21.34-8.84V350c0-27.5-22.5-50-50-50"/></svg>

<svg width="1200" height="1200" viewBox="0 0 1200 1200" fill="none" xmlns="http://www.w3.org/2000/svg"><path d="M737.5 200C744.405 200 750 205.596 750 212.5V537.5C750 544.405 744.405 550 737.5 550H263.678C260.363 550 257.183 551.315 254.839 553.66L229 579.5L221.339 587.16C213.464 595.035 200 589.46 200 578.32V212.5C200 205.596 205.596 200 212.5 200H737.5ZM800 100H150C122.5 100 100 122.5 100 150V819.82C100 830.96 113.464 836.535 121.339 828.66L300 650H800C827.5 650 850 627.5 850 600V150C850 122.5 827.5 100 800 100ZM1050 300H950V750H300V850C300 877.5 322.5 900 350 900H900L1078.66 1078.66C1086.535 1086.535 1100 1080.96 1100 1069.82V350C1100 322.5 1077.5 300 1050 300Z" fill="#1D1E23"/></svg>
